X:192
T: Ist denn Liebe ein Verbrechen (3-33), S. 84f
N: K1167
O: Luxemburg
S: KINTZELE, Guillaume: An der Ucht, Bd. 3 Luxemburg 1928]
N: in der Quelle mit einer 2. Stimme versehen
R: Liebeskummer]
M: 4/4
L: 1/16
K: C
E2F2 | G4c4d3cB2A2 | G2E2G6z2
A2A2 | G4D8F3E | C8z4
E2F2 | G4c4d3cB2A2 | G2E2G6z2
A2A2 | G4D8F3E | C8z4
c2c2 | B2d2d8c2c2 | c2e2e8
c2c2 | B2d2d8c2d2 | e2d2
c2A2G6G2 | A3GG2F2F4
A3A | G4D8F3E | C8z4

